assets/img/shield.svg

<svg width="393" height="480" viewBox="0 0 393 480" fill="none" xmlns="http://www.w3.org/2000/svg">
<path d="M371.076 194.46C361.455 215.032 350.909 235.214 340.32 255.385C335.057 265.41 329.784 275.436 324.403 285.397C316.343 300.36 307.916 315.129 299.318 329.788C290.719 344.448 281.658 359.022 272.134 372.957C270.951 374.678 269.789 376.432 268.583 378.132L264.924 383.156C262.524 386.512 259.941 389.879 257.391 393.225C252.233 399.909 247.017 406.542 241.744 413.125C233.92 422.87 225.935 432.462 217.692 441.741C213.57 446.364 209.373 450.923 205.068 455.221C202.916 457.387 200.764 459.455 198.547 461.306C197.998 461.772 197.471 462.216 196.923 462.638L196.126 463.233L195.792 463.472C195.379 463.816 194.873 464.027 194.339 464.078C194.037 464.045 193.743 463.961 193.468 463.829L193.048 463.645L192.467 463.33C191.175 462.616 189.798 461.707 188.431 460.787C185.698 458.913 182.964 456.813 180.274 454.669C174.893 450.338 169.599 445.747 164.412 441.038C155.157 432.607 146.21 423.819 137.572 414.673C133.268 410.115 129.082 405.47 125.057 400.728C121.027 396.055 117.247 391.169 113.735 386.09C99.4092 365.348 86.2564 343.811 74.338 321.581L70.3129 314.002C68.9677 311.458 67.6006 308.935 66.3845 306.326L58.8515 290.822C56.4194 285.473 53.988 280.139 51.5559 274.819C50.2968 272.166 49.1771 269.47 48.0363 266.764L44.6355 258.654C39.5346 246.311 35.0583 233.752 30.9367 220.987C29.8605 217.836 28.9891 214.599 28.0098 211.405L25.1681 201.79L22.6501 192.046C21.8215 188.798 20.8962 185.549 20.2183 182.301L17.9472 172.329L17.3881 169.828L16.9036 167.316L15.9462 162.293C14.558 155.612 13.6424 148.856 12.62 142.111C12.1681 138.733 11.8567 135.333 11.4693 131.944C11.3078 130.244 11.0496 128.555 10.9743 126.855L10.3931 117.934V117.403C10.3879 117.316 10.3879 117.23 10.3931 117.143L10.6401 117.089L11.6416 116.861L13.6531 116.407L17.9577 115.389L22.9622 114.198C49.3617 107.966 75.2614 99.7577 100.445 89.6424C103.598 88.3864 106.708 87.0223 109.818 85.6689C111.379 85.0301 112.908 84.2181 114.457 83.5035C116.007 82.7889 117.556 82.0092 119.052 81.1863L123.496 78.5879L125.714 77.2778L127.866 75.8483L132.171 73.0009C133.559 71.994 134.914 70.9656 136.281 69.9478C147.236 61.7517 157.083 52.31 166.682 42.7388C171.546 37.8882 176.367 32.9943 181.124 28.0571C183.513 25.6102 185.946 23.2068 188.367 20.7815L192.068 17.241C192.671 16.6455 193.306 16.0716 193.941 15.5086L195.652 13.9606C196.728 12.9321 197.945 12.0007 199.118 11.0371L200 10.3223C200.135 10.2004 200.279 10.0882 200.431 9.98664L200.818 10.3985L202.378 12.0331C203.454 13.1158 204.412 14.3178 205.434 15.4547L206.188 16.3206L208.641 19.2764L221.662 35.2142C230.289 45.8539 239.668 55.8517 249.729 65.1295C259.941 74.2135 271.252 82.2365 283.639 87.8666C308.466 98.9517 334.695 106.534 361.584 110.398C367.977 111.307 374.401 112 380.826 112.563C382.612 112.726 384.398 112.845 386.206 112.975C387.805 113.184 389.416 113.285 391.028 113.278C391.354 113.241 391.667 113.135 391.949 112.967C392.231 112.799 392.474 112.573 392.663 112.303C393.417 111.307 391.426 110.138 388.747 109.9C376.69 108.843 364.699 107.133 352.825 104.779C340.956 102.399 329.231 99.3409 317.709 95.619C314.846 94.6337 311.962 93.6807 309.1 92.6521C306.237 91.6235 303.407 90.5733 300.609 89.4039C297.811 88.2346 294.97 87.1738 292.216 85.9179L288.072 84.0771L286.006 83.1461L284.048 82.139C273.494 76.7446 263.76 69.8614 255.142 61.6974C246.156 53.4038 238.117 44.0923 230.175 34.4995C226.172 29.6922 222.276 24.7549 218.337 19.7744L215.346 16.0394L212.279 12.2932L211.891 11.8275L211.677 11.5674L211.364 11.2105L206.327 5.53682L204.972 4.09672L202.271 1.21706L201.593 0.491197L201.259 0.134345C201.194 0.134345 201.141 -0.0281894 201.087 0.00429212L200.893 0.15602L199.354 1.38994L196.287 3.85882C194.231 5.53703 192.219 7.10691 190.218 8.9367L188.065 10.8531L186.29 12.5205C185.117 13.6033 183.912 14.7508 182.76 15.866C178.133 20.3592 173.666 24.8852 169.2 29.3677C160.279 38.3217 151.337 47.0264 141.866 54.941C132.606 62.9438 122.394 69.7595 111.465 75.2314C110.098 75.881 108.796 76.5521 107.387 77.18L103.082 79.0314C100.209 80.2874 97.2816 81.4246 94.376 82.6264C88.5433 84.9434 82.6781 87.1737 76.7593 89.2416C64.8463 93.4642 52.7499 97.1346 40.5464 100.339C34.5522 101.899 27.1058 103.674 19.0885 105.342L11.6301 106.868L2.69822 108.644L1.20274 108.947L0.449229 109.098H0.266367C0.201798 109.098 0.115327 109.099 0.147612 109.196V109.575C0.309035 113.667 0.460411 117.782 0.611072 121.864C0.611072 123.315 0.707547 124.755 0.761355 126.195C0.761355 127.277 0.760976 128.36 0.911637 129.508C2.6406 153.792 6.60344 177.863 12.7493 201.411C18.8144 224.837 26.3334 247.857 35.2623 270.336C44.7924 294.393 55.8456 317.809 68.354 340.442L73.1105 348.877L75.5003 353.1L76.6836 355.2L77.9426 357.268L88.0694 373.79C88.898 375.176 89.7909 376.518 90.6841 377.861L93.364 381.899L98.7447 389.966L101.425 393.994C101.877 394.676 102.285 395.325 102.78 396.018L104.265 398.108C106.26 400.851 108.294 403.504 110.367 406.066C116.092 413.158 122.076 419.805 128.21 426.291C134.344 432.776 140.661 439.056 147.118 445.184C153.575 451.313 160.204 457.268 167.156 463.017C170.643 465.897 174.183 468.712 178.004 471.44C178.972 472.112 179.908 472.794 180.941 473.465L182.459 474.461L184.083 475.457C184.611 475.782 185.159 476.107 185.837 476.443C186.739 476.967 187.688 477.409 188.669 477.763C189.606 478.202 190.592 478.526 191.606 478.727L193.101 479.03L194.619 479.236C195.656 479.202 196.687 479.064 197.697 478.824C198.705 478.558 199.685 478.195 200.624 477.742C201.097 477.514 201.56 477.255 202.012 476.984C202.464 476.713 202.938 476.432 203.379 476.129C203.821 475.825 204.283 475.533 204.682 475.23L205.51 474.602C207.662 472.967 209.438 471.354 211.203 469.708C218.09 463.212 224.117 456.488 230.1 449.689C236.084 442.889 241.83 436.014 247.512 429.063C253.194 422.112 258.791 415.117 264.311 408.058L272.543 397.426C275.266 393.853 277.924 390.085 280.636 386.436C291.118 371.549 300.62 356.261 309.886 340.821C319.152 325.382 328.041 309.769 336.596 293.972C345.152 278.175 353.438 262.52 361.348 246.528C370.161 228.847 379.05 210.798 386.099 192.392C387.046 189.815 388.154 186.979 389.026 184.153C389.457 182.767 389.844 181.413 390.102 180.114C390.343 178.92 390.473 177.705 390.49 176.487C390.56 173.828 390.43 171.168 390.102 168.529C389.812 166.71 389.262 164.848 387.874 165.162C386.077 165.573 383.785 169.33 382.138 172.286C380.255 175.751 378.318 179.421 376.511 183.178C374.703 186.935 372.83 190.746 371.076 194.46Z" fill="#F5B400"/>
<path d="M147.634 358.816C143.76 352.623 140.016 346.365 136.088 340.226L130.04 331.185C126.973 326.681 124.068 322.08 121.14 317.489C119.645 315.183 118.256 312.834 116.836 310.495C115.415 308.156 113.941 305.839 112.531 303.468C109.809 298.78 107.042 294.102 104.438 289.392C101.339 283.925 98.5295 278.295 95.71 272.675C92.8905 267.056 90.2655 261.328 87.6935 255.579C80.9353 240.804 74.7109 225.787 69.0217 210.528C67.7088 207.052 66.4176 203.577 65.2015 200.08C63.9855 196.582 62.4035 193.031 61.0798 189.501C58.0845 181.557 55.7525 173.376 54.1069 165.042C53.2544 160.835 52.7324 156.567 52.5463 152.278L52.4811 149.549L52.5788 146.853L52.8479 144.06C52.8479 143.886 52.9982 143.962 53.0843 143.941H60.3053C60.5561 143.957 60.8079 143.957 61.0588 143.941C63.2649 143.941 65.4599 143.887 67.666 143.887C69.8721 143.887 72.0565 143.767 74.2627 143.648L77.5668 143.453C78.6687 143.419 79.7675 143.325 80.8593 143.172C83.0116 142.89 85.1927 142.566 87.4024 142.198C88.4901 142.03 89.5679 141.802 90.6309 141.515L93.8593 140.725C98.1639 139.761 102.296 138.191 106.504 136.968L112.778 134.673C113.854 134.283 114.877 133.947 115.899 133.503L118.956 132.182L122.022 130.872C123.044 130.429 124.067 129.995 125.047 129.476L130.987 126.444C131.977 125.967 132.913 125.361 133.86 124.809L136.702 123.109L139.542 121.388C140.468 120.792 141.35 120.132 142.265 119.504C144.062 118.226 145.892 116.992 147.646 115.649L152.736 111.437L154.006 110.355L157.589 106.944L159.956 104.659C160.753 103.912 161.442 103.046 162.184 102.245C163.626 100.588 165.112 98.997 166.489 97.2755C167.867 95.5539 169.061 93.7348 170.288 91.9375L171.17 90.6602L171.966 89.3068L173.548 86.6323L174.441 85.1494C174.657 84.7921 175.205 84.2502 175.249 83.8388C175.292 83.4274 175.001 83.2 174.624 82.7561C174.476 82.5783 174.293 82.4336 174.087 82.33C173.881 82.2264 173.656 82.1666 173.426 82.1544C173.196 82.1423 172.965 82.1779 172.749 82.2591C172.534 82.3404 172.337 82.4654 172.171 82.6265L168.878 87.2498C168.347 88.0355 167.769 88.7872 167.146 89.5014L165.337 91.6668C162.92 94.608 160.353 97.42 157.643 100.091C156.298 101.444 154.813 102.646 153.403 103.923L151.251 105.807C150.54 106.446 149.733 106.977 148.98 107.561C147.441 108.698 145.902 109.813 144.352 110.928C142.803 112.044 141.124 112.931 139.456 113.906L136.927 115.368C136.088 115.866 135.195 116.245 134.323 116.699C132.591 117.565 130.869 118.454 129.168 119.396C127.468 120.337 125.639 121.085 123.874 121.94L121.226 123.196C120.343 123.596 119.418 123.932 118.514 124.278L113.133 126.444C111.293 127.093 109.431 127.689 107.58 128.306L104.804 129.237C103.867 129.519 102.92 129.746 101.984 130.006L96.3238 131.489C94.4082 131.912 92.471 132.258 90.5447 132.648L87.6609 133.211C86.6924 133.384 85.7132 133.471 84.7446 133.601L78.9225 134.337C76.9746 134.499 75.0156 134.575 73.0677 134.694L70.1304 134.846C69.1511 134.9 68.1608 134.846 67.1815 134.846L61.3058 134.738H60.3378L49.1885 134.131L45.5723 133.947L44.6475 133.893C44.5614 134.163 44.5176 134.499 44.453 134.803L44.1094 136.665C43.6144 139.166 43.1834 141.699 42.7852 144.244L42.5488 145.64C42.4734 146.106 42.4628 146.539 42.409 146.983C42.3337 147.871 42.2576 148.748 42.1715 149.625L42.0538 150.945L42.0002 151.606V152.028C42.0002 152.58 42.0002 153.111 42.0002 153.685C42.0002 154.768 42.0002 155.851 42.0002 156.933C42.0002 158.016 41.9993 159.099 42.1284 160.116C42.373 164.176 42.8767 168.215 43.6354 172.21C45.2073 180.088 47.1795 187.879 49.5438 195.554C54.2919 211.537 59.8448 227.268 66.181 242.684C71.0775 254.659 76.4905 266.395 82.3233 277.916L86.3368 285.668C87.682 288.256 89.0382 290.833 90.448 293.377L94.6454 301.021L98.95 308.6C100.381 311.145 101.877 313.646 103.394 316.179C104.912 318.713 106.376 321.181 107.914 323.66C111.035 328.587 114.091 333.535 117.341 338.364C120.591 343.193 123.798 347.968 127.027 352.721C128.813 355.363 130.675 357.993 132.547 360.603C134.403 363.225 136.445 365.707 138.659 368.03C139.908 369.318 141.339 370.997 143.416 371.138C144.762 371.268 146.117 371.268 147.463 371.138C148.631 371.101 149.749 370.649 150.616 369.86C151.025 369.316 151.294 368.678 151.399 368.004C151.504 367.329 151.441 366.639 151.218 365.995C150.44 363.413 149.228 360.985 147.634 358.816Z" fill="#F5B400"/>
</svg>

<svg width="393" height="480" fill="none" xmlns="http://www.w3.org/2000/svg"><path d="M371.076 194.46c-9.621 20.572-20.167 40.754-30.756 60.925-5.263 10.025-10.536 20.051-15.917 30.012-8.06 14.963-16.487 29.732-25.085 44.391-8.599 14.66-17.66 29.234-27.184 43.169-1.183 1.721-2.345 3.475-3.551 5.175l-3.659 5.024c-2.4 3.356-4.983 6.723-7.533 10.069a1397.749 1397.749 0 0 1-15.647 19.9c-7.824 9.745-15.809 19.337-24.052 28.616-4.122 4.623-8.319 9.182-12.624 13.48-2.152 2.166-4.304 4.234-6.521 6.085-.549.466-1.076.91-1.624 1.332l-.797.595-.334.239a2.666 2.666 0 0 1-1.453.606 2.685 2.685 0 0 1-.871-.249l-.42-.184-.581-.315c-1.292-.714-2.669-1.623-4.036-2.543-2.733-1.874-5.467-3.974-8.157-6.118-5.381-4.331-10.675-8.922-15.862-13.631a500.822 500.822 0 0 1-26.84-26.365 354.117 354.117 0 0 1-12.515-13.945 173.572 173.572 0 0 1-11.322-14.638 673.478 673.478 0 0 1-39.397-64.509l-4.025-7.579c-1.345-2.544-2.712-5.067-3.928-7.676l-7.534-15.504a8571.07 8571.07 0 0 0-7.295-16.003c-1.26-2.653-2.379-5.349-3.52-8.055l-3.4-8.11c-5.101-12.343-9.578-24.902-13.7-37.667-1.076-3.151-1.947-6.388-2.926-9.582l-2.842-9.615-2.518-9.744c-.828-3.248-1.754-6.497-2.432-9.745l-2.27-9.972-.56-2.501-.484-2.512-.958-5.023c-1.388-6.681-2.304-13.437-3.326-20.182-.452-3.378-.763-6.778-1.15-10.167-.162-1.7-.42-3.389-.496-5.089l-.58-8.921v-.531a2.169 2.169 0 0 1 0-.26l.246-.054 1.002-.228 2.011-.454 4.305-1.018 5.004-1.191a541.95 541.95 0 0 0 77.483-24.556c3.153-1.256 6.263-2.62 9.373-3.973 1.561-.639 3.09-1.45 4.639-2.165a72.97 72.97 0 0 0 4.595-2.318l4.444-2.598 2.218-1.31 2.152-1.43 4.305-2.847c1.388-1.007 2.743-2.035 4.11-3.053 10.955-8.196 20.802-17.638 30.401-27.21 4.864-4.85 9.685-9.744 14.442-14.68 2.389-2.448 4.822-4.851 7.243-7.276l3.701-3.541a47.604 47.604 0 0 1 1.873-1.732l1.711-1.548c1.076-1.029 2.293-1.96 3.466-2.924l.882-.715a3.76 3.76 0 0 1 .431-.335l.387.412 1.56 1.634c1.076 1.083 2.034 2.285 3.056 3.422l.754.866 2.453 2.955 13.021 15.938a283.991 283.991 0 0 0 28.067 29.915c10.212 9.084 21.523 17.108 33.91 22.738a293.612 293.612 0 0 0 77.945 22.531c6.393.909 12.817 1.602 19.242 2.165 1.786.163 3.572.282 5.38.412a36 36 0 0 0 4.822.303 2.305 2.305 0 0 0 1.635-.975c.754-.996-1.237-2.165-3.916-2.403a335.302 335.302 0 0 1-35.922-5.121 317 317 0 0 1-35.116-9.16c-2.863-.985-5.747-1.938-8.609-2.967-2.863-1.028-5.693-2.079-8.491-3.248-2.798-1.17-5.639-2.23-8.393-3.486l-4.144-1.84-2.066-.932-1.958-1.007a124.277 124.277 0 0 1-28.906-20.442c-8.986-8.293-17.025-17.605-24.967-27.198-4.003-4.807-7.899-9.744-11.838-14.725l-2.991-3.735-3.067-3.746-.388-.465-.214-.26-.313-.357-5.037-5.674-1.355-1.44-2.701-2.88-.678-.726-.334-.357c-.065 0-.118-.162-.172-.13l-.194.152-1.539 1.234-3.067 2.469c-2.056 1.678-4.068 3.248-6.069 5.078l-2.153 1.916-1.775 1.668a207.699 207.699 0 0 0-3.53 3.345c-4.627 4.493-9.094 9.02-13.56 13.502-8.921 8.954-17.863 17.658-27.334 25.573a147.456 147.456 0 0 1-30.401 20.29c-1.367.65-2.669 1.321-4.078 1.949l-4.305 1.851c-2.873 1.256-5.8 2.394-8.706 3.595-5.833 2.317-11.698 4.548-17.617 6.616-11.913 4.222-24.01 7.893-36.213 11.097a454.839 454.839 0 0 1-21.457 5.003l-7.459 1.526-8.932 1.776-1.495.303-.754.151H.266c-.064 0-.15.001-.118.098v.379c.161 4.092.312 8.207.463 12.289 0 1.451.097 2.891.15 4.331 0 1.082 0 2.165.15 3.313a396.137 396.137 0 0 0 11.838 71.903 581.575 581.575 0 0 0 22.513 68.925 607.464 607.464 0 0 0 33.092 70.106l4.757 8.435 2.39 4.223 1.183 2.1 1.259 2.068 10.126 16.522c.829 1.386 1.722 2.728 2.615 4.071l2.68 4.038 5.38 8.067 2.681 4.028c.452.682.86 1.331 1.355 2.024l1.485 2.09a194.875 194.875 0 0 0 6.102 7.958c5.725 7.092 11.709 13.739 17.843 20.225 6.134 6.485 12.451 12.765 18.908 18.893 6.457 6.129 13.086 12.084 20.038 17.833 3.487 2.88 7.027 5.695 10.848 8.423.968.672 1.904 1.354 2.937 2.025l1.518.996 1.624.996c.528.325 1.076.65 1.754.986.902.524 1.851.966 2.832 1.32a12.78 12.78 0 0 0 2.937.964l1.495.303 1.518.206a15.512 15.512 0 0 0 3.078-.412 16.323 16.323 0 0 0 2.927-1.082c.473-.228.936-.487 1.388-.758.452-.271.926-.552 1.367-.855.442-.304.904-.596 1.303-.899l.828-.628c2.152-1.635 3.928-3.248 5.693-4.894 6.887-6.496 12.914-13.22 18.897-20.019 5.984-6.8 11.73-13.675 17.412-20.626a1243.21 1243.21 0 0 0 16.799-21.005l8.232-10.632c2.723-3.573 5.381-7.341 8.093-10.99 10.482-14.887 19.984-30.175 29.25-45.615a1219.574 1219.574 0 0 0 26.71-46.849c8.556-15.797 16.842-31.452 24.752-47.444 8.813-17.681 17.702-35.73 24.751-54.136.947-2.577 2.055-5.413 2.927-8.239.431-1.386.818-2.74 1.076-4.039a19.73 19.73 0 0 0 .388-3.627c.07-2.659-.06-5.319-.388-7.958-.29-1.819-.84-3.681-2.228-3.367-1.797.411-4.089 4.168-5.736 7.124-1.883 3.465-3.82 7.135-5.627 10.892-1.808 3.757-3.681 7.568-5.435 11.282Z" fill="#F5B400"/><path d="M147.634 358.816c-3.874-6.193-7.618-12.451-11.546-18.59l-6.048-9.041c-3.067-4.504-5.972-9.105-8.9-13.696-1.495-2.306-2.884-4.655-4.304-6.994-1.421-2.339-2.895-4.656-4.305-7.027-2.722-4.688-5.489-9.366-8.093-14.076-3.099-5.467-5.909-11.097-8.728-16.717-2.82-5.619-5.444-11.347-8.016-17.096a676.129 676.129 0 0 1-18.672-45.051c-1.313-3.476-2.604-6.951-3.82-10.448-1.216-3.498-2.798-7.049-4.122-10.579a153.74 153.74 0 0 1-6.973-24.459 82.217 82.217 0 0 1-1.56-12.764l-.066-2.729.098-2.696.269-2.793c0-.174.15-.098.236-.119h7.221c.251.016.503.016.754 0 2.206 0 4.4-.054 6.607-.054 2.206 0 4.39-.12 6.597-.239l3.304-.195a30.5 30.5 0 0 0 3.292-.281c2.153-.282 4.334-.606 6.543-.974a29.89 29.89 0 0 0 3.229-.683l3.228-.79c4.305-.964 8.437-2.534 12.645-3.757l6.274-2.295c1.076-.39 2.099-.726 3.121-1.17l3.057-1.321 3.066-1.31c1.022-.443 2.045-.877 3.025-1.396l5.94-3.032c.99-.477 1.926-1.083 2.873-1.635l2.842-1.7 2.84-1.721c.926-.596 1.808-1.256 2.723-1.884 1.797-1.278 3.627-2.512 5.381-3.855l5.09-4.212 1.27-1.082 3.583-3.411 2.367-2.285c.797-.747 1.486-1.613 2.228-2.414 1.442-1.657 2.928-3.248 4.305-4.97 1.378-1.721 2.572-3.54 3.799-5.338l.882-1.277.796-1.353 1.582-2.675.893-1.483c.216-.357.764-.899.808-1.31.043-.412-.248-.639-.625-1.083a1.681 1.681 0 0 0-1.198-.602 1.676 1.676 0 0 0-1.255.472l-3.293 4.624a23.108 23.108 0 0 1-1.732 2.251l-1.809 2.166a108.936 108.936 0 0 1-7.694 8.424c-1.345 1.353-2.83 2.555-4.24 3.832l-2.152 1.884c-.711.639-1.518 1.17-2.271 1.754a450.034 450.034 0 0 1-4.628 3.367c-1.549 1.116-3.228 2.003-4.896 2.978l-2.529 1.462c-.839.498-1.732.877-2.604 1.331a138.094 138.094 0 0 0-5.155 2.697c-1.7.941-3.529 1.689-5.294 2.544l-2.648 1.256c-.883.4-1.808.736-2.712 1.082l-5.381 2.166c-1.84.649-3.702 1.245-5.553 1.862l-2.776.931c-.937.282-1.884.509-2.82.769l-5.66 1.483c-1.916.423-3.853.769-5.78 1.159l-2.883.563c-.969.173-1.948.26-2.916.39l-5.823.736c-1.947.162-3.906.238-5.854.357l-2.938.152c-.979.054-1.97 0-2.948 0l-5.876-.108h-.968l-11.15-.607-3.616-.184-.925-.054c-.086.27-.13.606-.194.91l-.344 1.862a191.72 191.72 0 0 0-1.324 7.579l-.236 1.396c-.076.466-.086.899-.14 1.343-.075.888-.151 1.765-.237 2.642l-.118 1.32-.054.661v5.327c0 1.083 0 2.166.128 3.183.245 4.06.749 8.099 1.507 12.094a236.446 236.446 0 0 0 5.909 23.344 494.114 494.114 0 0 0 16.637 47.13c4.897 11.975 10.31 23.711 16.142 35.232l4.014 7.752a327.45 327.45 0 0 0 4.111 7.709l4.197 7.644 4.305 7.579c1.431 2.545 2.927 5.046 4.444 7.579 1.518 2.534 2.982 5.002 4.52 7.481 3.121 4.927 6.177 9.875 9.427 14.704 3.25 4.829 6.457 9.604 9.686 14.357a347.6 347.6 0 0 0 5.52 7.882 66.205 66.205 0 0 0 6.112 7.427c1.249 1.288 2.68 2.967 4.757 3.108 1.346.13 2.701.13 4.047 0a4.915 4.915 0 0 0 3.153-1.278 4.153 4.153 0 0 0 .602-3.865 23.638 23.638 0 0 0-3.584-7.179Z" fill="#F5B400"/></svg>
